assets/svg/spanner_icon.svg

<svg fill="none" height="26" viewBox="0 0 26 26" width="26" xmlns="http://www.w3.org/2000/svg"><path d="m23.9653 16.9599c-.5192-.5194-1.1476-.9168-1.8394-1.1632-.6918-.2465-1.4298-.3359-2.1606-.2618l-7.5-7.49999c.3728-1.46187.1811-3.0104-.5368-4.33733-.7179-1.32688-1.9092-2.3347-3.33684-2.822404-1.4276-.48792-2.98666-.420107-4.3664.189894-.15292.06511-.26343.20188-.29498.36501-.03136.16396.02114.3328.14.45l3 3.00001-.5 1.70501-1.70502.5-3-3c-.11718-.11885-.28605-.17136-.45-.14-.16312.03156-.29989.14208-.36501.29499-.585628 1.37376-.638028 2.91653-.146772 4.32666.491252 1.41022 1.490722 2.58655 2.803202 3.29925 1.3124.7126 2.8432.9101 4.2936.554l7.50002 7.5251c-.1015 1.0164.1137 2.0394.6161 2.9288.5023.8894 1.2673 1.6018 2.1902 2.0398.923.4379 1.9586.5799 2.9654.4065 1.0066-.1734 1.9351-.6537 2.6583-1.3752.6151-.6139 1.0576-1.3792 1.2828-2.2186s.2252-1.7234 0-2.5627c-.2252-.8395-.6677-1.6047-1.2828-2.2187zm-.705 6.3c-.7912.7955-1.8835 1.2169-3.004 1.1591s-2.1636-.5895-2.8688-1.4622-1.0059-2.0042-.8272-3.112c.0263-.1591-.0259-.3211-.14-.435l-7.91997-7.9099c-.09313-.0924-.21885-.1444-.35-.145-.04813-.0071-.09688-.0071-.145 0-.86573.2592-1.78552.2789-2.66147.057-.87605-.2219-1.67552-.677-2.31354-1.317-.6175-.61341-1.06302-1.37832-1.29208-2.21811-.22896-.83968-.23344-1.7249-.01292-2.56688l2.65499 2.69013c.06364.06511.14375.11167.23187.13459.08813.02292.18083.02135.26813-.00458l2.25-.64502c.16521-.04875.29366-.17917.34-.34501l.65-2.25c.02594-.08729.0275-.18.00459-.26813-.02292-.08813-.06948-.16823-.13459-.23188l-2.65-2.65c.84198-.22052 1.7272-.21604 2.56688.01292.83979.22906 1.6047.67458 2.21811 1.29208.6445.64032 1.1023 1.44416 1.3243 2.32501.222.88093.1998 1.80573-.0643 2.67493-.0397.16136.0035.33187.115.45499l7.9 7.90506c.114.1141.276.1663.435.14 1.1077-.1787 2.2392.122 3.112.8272.8727.7051 1.4044 1.7482 1.4622 2.8688.0578 1.1205-.3636 2.2128-1.1591 3.004zm-2.7949-4.9149c-.6591.0006-1.2803.3076-1.6812.8308-.4007.5232-.5354 1.203-.3642 1.8395.171.6364.6284 1.1572 1.2375 1.4089.609.2517 1.3005.2059 1.871-.124s.9552-.9065 1.0408-1.5599c.0856-.6535-.1376-1.3096-.6039-1.7753-.3967-.3994-.9371-.6227-1.5-.62zm.79 2.9098c-.2135.2019-.4961.3143-.79.3143s-.5765-.1124-.79-.3143c-.2085-.2093-.3254-.4929-.325-.7883s.118-.5786.3271-.7875c.209-.2087.4925-.326.7879-.326s.5788.1173.7879.326c.2091.2089.3267.4921.3271.7875s-.1164.579-.325.7883z" fill="#000"/></svg>

<svg width="26" height="26" viewBox="0 0 26 26" fill="none" xmlns="http://www.w3.org/2000/svg">
<path d="M23.9653 16.9599C23.4461 16.4405 22.8177 16.0431 22.1259 15.7967C21.4341 15.5502 20.6961 15.4608 19.9653 15.5349L12.4653 8.03491C12.8381 6.57304 12.6464 5.02451 11.9285 3.69758C11.2106 2.3707 10.0193 1.36288 8.59166 0.875176C7.16406 0.387256 5.605 0.455069 4.22526 1.06507C4.07234 1.13018 3.96183 1.26695 3.93028 1.43008C3.89892 1.59404 3.95142 1.76288 4.07028 1.88008L7.07028 4.88009L6.57028 6.5851L4.86526 7.0851L1.86526 4.0851C1.74808 3.96625 1.57921 3.91374 1.41526 3.9451C1.25214 3.97666 1.11537 4.08718 1.05025 4.24009C0.464622 5.61385 0.412222 7.15662 0.903478 8.56675C1.39473 9.97697 2.3942 11.1533 3.70668 11.866C5.01908 12.5786 6.54988 12.7761 8.00028 12.42L15.5003 19.9451C15.3988 20.9615 15.614 21.9845 16.1164 22.8739C16.6187 23.7633 17.3837 24.4757 18.3066 24.9137C19.2296 25.3516 20.2652 25.4936 21.272 25.3202C22.2786 25.1468 23.2071 24.6665 23.9303 23.945C24.5454 23.3311 24.9879 22.5658 25.2131 21.7264C25.4383 20.887 25.4383 20.003 25.2131 19.1637C24.9879 18.3242 24.5454 17.559 23.9303 16.945L23.9653 16.9599ZM23.2603 23.2599C22.4691 24.0554 21.3768 24.4768 20.2563 24.419C19.1358 24.3612 18.0927 23.8295 17.3875 22.9568C16.6823 22.0841 16.3816 20.9526 16.5603 19.8448C16.5866 19.6857 16.5344 19.5237 16.4203 19.4098L8.50033 11.4999C8.4072 11.4075 8.28148 11.3555 8.15033 11.3549C8.1022 11.3478 8.05345 11.3478 8.00533 11.3549C7.1396 11.6141 6.21981 11.6338 5.34386 11.4119C4.46781 11.19 3.66834 10.7349 3.03032 10.0949C2.41282 9.48149 1.9673 8.71658 1.73824 7.87679C1.50928 7.03711 1.5048 6.15189 1.72532 5.30991L4.38031 8.00004C4.44395 8.06515 4.52406 8.11171 4.61218 8.13463C4.70031 8.15755 4.79301 8.15598 4.88031 8.13005L7.13031 7.48503C7.29552 7.43628 7.42397 7.30586 7.47031 7.14002L8.12031 4.89002C8.14625 4.80273 8.14781 4.71002 8.1249 4.62189C8.10198 4.53376 8.05542 4.45366 7.99031 4.39001L5.34031 1.74001C6.18229 1.51949 7.06751 1.52397 7.90719 1.75293C8.74698 1.98199 9.51189 2.42751 10.1253 3.04501C10.7698 3.68533 11.2276 4.48917 11.4496 5.37002C11.6716 6.25095 11.6494 7.17575 11.3853 8.04495C11.3456 8.20631 11.3888 8.37682 11.5003 8.49994L19.4003 16.405C19.5143 16.5191 19.6763 16.5713 19.8353 16.545C20.943 16.3663 22.0745 16.667 22.9473 17.3722C23.82 18.0773 24.3517 19.1204 24.4095 20.241C24.4673 21.3615 24.0459 22.4538 23.2504 23.245L23.2603 23.2599ZM20.4654 18.345C19.8063 18.3456 19.1851 18.6526 18.7842 19.1758C18.3835 19.699 18.2488 20.3788 18.42 21.0153C18.591 21.6517 19.0484 22.1725 19.6575 22.4242C20.2665 22.6759 20.958 22.6301 21.5285 22.3002C22.099 21.9703 22.4837 21.3937 22.5693 20.7403C22.6549 20.0868 22.4317 19.4307 21.9654 18.965C21.5687 18.5656 21.0283 18.3423 20.4654 18.345ZM21.2554 21.2548C21.0419 21.4567 20.7593 21.5691 20.4654 21.5691C20.1715 21.5691 19.8889 21.4567 19.6754 21.2548C19.4669 21.0455 19.35 20.7619 19.3504 20.4665C19.3508 20.1711 19.4684 19.8879 19.6775 19.679C19.8865 19.4703 20.17 19.353 20.4654 19.353C20.7608 19.353 21.0442 19.4703 21.2533 19.679C21.4624 19.8879 21.58 20.1711 21.5804 20.4665C21.5808 20.7619 21.464 21.0455 21.2554 21.2548Z" fill="black"/>
</svg>
